icons/KoraCustom/apps/scalable/com.github.davide-sd.ip_address.svg

<svg xmlns="http://www.w3.org/2000/svg" width="48" height="48" version="1.1">
 <defs>
  <clipPath id="clipPath4401" clipPathUnits="userSpaceOnUse">
   <circle style="fill:none;stroke:#ffffff;stroke-width:2;stroke-linecap:round;stroke-linejoin:round" cx="160" cy="184" r="15"/>
  </clipPath>
 </defs>
 <rect style="opacity:0.2" width="40" height="40" x="4" y="5" rx="20" ry="20"/>
 <rect style="fill:#4e9eff" width="40" height="40" x="4" y="4" rx="20" ry="20"/>
 <path style="opacity:0.1" d="m 24,11 a 14,14 0 0 0 -0.107422,0.0039 c -0.377636,0.0029 -0.749263,0.02802 -1.11914,0.06055 a 14,14 0 0 0 -0.71875,0.08594 c -0.239175,0.03368 -0.477769,0.06953 -0.712891,0.115234 a 14,14 0 0 0 -0.679688,0.152344 c -0.241291,0.05969 -0.480614,0.123206 -0.716797,0.195312 a 14,14 0 0 0 -0.609374,0.203125 c -0.262824,0.0938 -0.523955,0.191912 -0.779297,0.300782 a 14,14 0 0 0 -0.464844,0.208984 c -0.302879,0.14248 -0.601949,0.291964 -0.892578,0.455078 a 14,14 0 0 0 -0.265625,0.152344 c -0.353843,0.208892 -0.700027,0.429766 -1.033203,0.667968 a 14,14 0 0 0 -0.06055,0.04297 c -0.37201,0.268933 -0.732577,0.554253 -1.076172,0.857422 -0.352278,0.310831 -0.688009,0.638361 -1.007813,0.982422 a 14,14 0 0 0 -1.273437,1.5625 c 0.0012,8.27e-4 0.0027,0.0011 0.0039,0.002 -0.10694,0.154398 -0.203836,0.315833 -0.304687,0.47461 a 14,14 0 0 0 -0.324219,0.529296 c -0.101335,0.176245 -0.197209,0.356191 -0.291016,0.53711 a 14,14 0 0 0 -0.320312,0.666015 c -0.06162,0.135975 -0.126231,0.269973 -0.183594,0.408203 a 14,14 0 0 0 -0.427734,1.173829 c -0.0137,0.04373 -0.02383,0.0889 -0.03711,0.132812 A 14,14 0 0 0 10.3125,22.085938 c -0.02102,0.09843 -0.03966,0.197691 -0.05859,0.296874 a 14,14 0 0 0 -0.158203,1.048829 c -0.0098,0.08662 -0.02114,0.172679 -0.0293,0.259765 A 14,14 0 0 0 10,25 a 14,14 0 0 0 0.01367,0.402344 c 0.006,0.208324 0.01028,0.417119 0.02539,0.623047 a 14,14 0 0 0 0.158204,1.302734 c 0.01225,0.07232 0.0296,0.142905 0.04297,0.214844 a 14,14 0 0 0 0.228516,1.017578 c 0.03652,0.137746 0.07658,0.2741 0.117188,0.410156 a 14,14 0 0 0 0.253906,0.769531 c 0.05835,0.160588 0.113735,0.322654 0.177734,0.480469 a 14,14 0 0 0 0.322266,0.71875 c 0.16039,0.339178 0.331527,0.672323 0.517578,0.996094 a 14,14 0 0 0 0.177734,0.306641 c 0.152255,0.250223 0.311494,0.494612 0.478516,0.734374 a 14,14 0 0 0 1.322266,1.640626 c 0.003,-0.0019 0.0048,-0.0039 0.0078,-0.0059 0.956229,1.009957 2.059131,1.879992 3.275391,2.572266 0.337807,0.192274 0.690439,0.361192 1.044921,0.52539 a 14,14 0 0 0 0.25586,0.123047 c 0.277342,0.121641 0.565226,0.222402 0.851562,0.326172 a 14,14 0 0 0 0.5,0.183594 c 0.214194,0.0684 0.435775,0.117614 0.654297,0.175781 a 14,14 0 0 0 0.751953,0.19336 c 0.171714,0.03549 0.349486,0.05295 0.523438,0.08203 a 14,14 0 0 0 0.873047,0.132812 c 0.227599,0.02327 0.460695,0.02498 0.691406,0.03711 A 14,14 0 0 0 24,39 a 14,14 0 0 0 0.119141,-0.0039 c 0.363545,-0.0031 0.72173,-0.0261 1.078125,-0.05664 a 14,14 0 0 0 0.767578,-0.0918 c 0.219246,-0.03115 0.438444,-0.06421 0.654297,-0.105468 a 14,14 0 0 0 0.714843,-0.160157 C 27.557797,38.526807 27.78056,38.470203 28,38.404297 A 14,14 0 0 0 28.652344,38.1875 c 0.234229,-0.08325 0.468935,-0.166493 0.697265,-0.261719 a 14,14 0 0 0 0.554688,-0.25 c 0.256203,-0.120272 0.510311,-0.243828 0.757812,-0.378906 a 14,14 0 0 0 0.382813,-0.21875 c 0.298514,-0.175351 0.592991,-0.356447 0.876953,-0.552734 a 14,14 0 0 0 0.197266,-0.140625 c 0.325875,-0.233642 0.642903,-0.478306 0.947265,-0.738282 a 14,14 0 0 0 0.07617,-0.06641 c 0.326837,-0.28323 0.641844,-0.580856 0.941406,-0.892578 a 14,14 0 0 0 1.306641,-1.566406 c -0.0012,-8.28e-4 -0.0027,-0.0011 -0.0039,-0.002 0.178183,-0.249195 0.345708,-0.506784 0.507812,-0.767579 a 14,14 0 0 0 0.126953,-0.207031 c 0.151218,-0.252847 0.294164,-0.510742 0.429688,-0.773437 a 14,14 0 0 0 0.162109,-0.335938 c 0.109224,-0.226265 0.221121,-0.450844 0.31836,-0.683594 a 14,14 0 0 0 0.0039,-0.0098 14,14 0 0 0 0.396484,-1.087891 c 0.04283,-0.132954 0.07828,-0.269653 0.117188,-0.404297 a 14,14 0 0 0 0.226562,-0.890625 c 0.02625,-0.120309 0.04916,-0.24184 0.07227,-0.363281 a 14,14 0 0 0 0.152344,-1.005859 c 0.01051,-0.09147 0.02449,-0.181436 0.0332,-0.273438 A 14,14 0 0 0 38,25 14,14 0 0 0 37.978516,24.408203 c -0.0058,-0.138024 -0.0058,-0.277109 -0.01563,-0.414062 a 14,14 0 0 0 -0.160157,-1.324219 c -0.01161,-0.06845 -0.02841,-0.135013 -0.04102,-0.203125 A 14,14 0 0 0 37.53125,21.433594 c -0.0336,-0.126504 -0.07038,-0.251874 -0.107422,-0.376953 a 14,14 0 0 0 -0.273437,-0.820313 c -0.05398,-0.147741 -0.103334,-0.297969 -0.16211,-0.443359 a 14,14 0 0 0 -0.361328,-0.806641 c -0.141095,-0.293973 -0.292641,-0.58096 -0.453125,-0.863281 A 14,14 0 0 0 35.96875,17.763672 c -0.147824,-0.243185 -0.303069,-0.481521 -0.464844,-0.714844 a 14,14 0 0 0 -1.308594,-1.628906 c -0.0025,0.0017 -0.0034,0.0042 -0.0059,0.0059 -0.958356,-1.01938 -2.065159,-1.897029 -3.287109,-2.595703 -0.349849,-0.200033 -0.71425,-0.377025 -1.082032,-0.546875 A 14,14 0 0 0 29.597656,12.175781 C 29.325245,12.055815 29.042843,11.95623 28.761719,11.853516 A 14,14 0 0 0 28.222656,11.65625 c -0.205179,-0.06543 -0.417797,-0.113877 -0.626953,-0.169922 a 14,14 0 0 0 -0.773437,-0.197266 c -0.160315,-0.03314 -0.326011,-0.05056 -0.488282,-0.07812 a 14,14 0 0 0 -0.923828,-0.138672 c -0.182533,-0.01846 -0.370137,-0.01799 -0.554687,-0.0293 A 14,14 0 0 0 24,11 Z m -1.007812,2.1875 v 4.707031 c -1.338169,-0.04627 -2.615347,-0.186862 -3.796876,-0.410156 0.177454,-0.415873 0.363497,-0.816403 0.566407,-1.181641 0.935094,-1.683169 2.065405,-2.729359 3.230469,-3.115234 z m 2,0 c 1.166081,0.385493 2.296954,1.431393 3.232421,3.115234 0.199146,0.358462 0.381984,0.750916 0.556641,1.158204 -1.176332,0.229169 -2.453076,0.378672 -3.789062,0.43164 z m 4.273437,1.035156 c 1.147422,0.560352 2.192348,1.29198 3.097656,2.171875 -0.499377,0.212091 -1.037912,0.407787 -1.617187,0.582031 -0.235162,-0.577397 -0.488909,-1.13238 -0.773438,-1.644531 -0.217906,-0.39223 -0.457874,-0.757158 -0.707031,-1.109375 z m -10.552734,0.0098 c -0.24636,0.349206 -0.483437,0.711202 -0.699219,1.099609 -0.290413,0.522743 -0.550123,1.08906 -0.789063,1.679688 -0.584906,-0.171551 -1.130999,-0.364301 -1.636718,-0.574219 0.910438,-0.894491 1.966246,-1.636353 3.125,-2.205078 z m 15.013671,3.746094 c 1.243978,1.721936 2.041026,3.783573 2.22461,6.027343 h -3.765625 c -0.07352,-1.82881 -0.34786,-3.558532 -0.791016,-5.130859 0.798664,-0.244811 1.548682,-0.525712 2.234375,-0.845703 0.03381,-0.01578 0.06409,-0.0348 0.09766,-0.05078 z m -19.49414,0.05664 c 0.717754,0.334094 1.508975,0.623346 2.349609,0.875 -0.437382,1.563034 -0.708278,3.280428 -0.78125,5.095703 h -3.751953 c 0.181567,-2.219124 0.962997,-4.260207 2.183594,-5.970703 z m 15.220703,1.333985 c 0.397945,1.400589 0.655716,2.968463 0.730469,4.636718 h -5.191406 v -4.113281 c 1.573261,-0.05649 3.072049,-0.234978 4.460937,-0.523437 z m -10.927734,0.0293 c 1.391685,0.280796 2.894178,0.448774 4.466797,0.498046 v 4.109375 h -5.189454 c 0.07424,-1.656805 0.32934,-3.214125 0.722657,-4.607421 z m -6.476563,6.607421 h 3.751953 c 0.07497,1.865155 0.357651,3.629123 0.816407,5.226563 -0.821333,0.244264 -1.59382,0.524757 -2.298829,0.847656 -1.266689,-1.730839 -2.081998,-3.80891 -2.269531,-6.074219 z m 5.753906,0 h 5.189454 v 4.25 c -1.559129,0.04885 -3.050028,0.21368 -4.431641,0.490235 -0.414463,-1.426502 -0.681248,-3.03137 -0.757813,-4.740235 z m 7.189454,0 h 5.191406 c -0.07708,1.720317 -0.346435,3.335913 -0.765625,4.769532 -1.378887,-0.284155 -2.865996,-0.459615 -4.425781,-0.515625 z m 7.193359,0 h 3.765625 c -0.189368,2.28747 -1.018623,4.384233 -2.306641,6.125 -0.0054,-0.0025 -0.01026,-0.0053 -0.01563,-0.0078 -0.695524,-0.324579 -1.457916,-0.608298 -2.269531,-0.855469 0.464643,-1.606566 0.750658,-3.383049 0.826172,-5.261719 z m -9.193359,6.251953 v 4.56836 C 21.827124,36.440297 20.696813,35.394106 19.761719,33.710938 19.57957,33.383069 19.411783,33.02719 19.25,32.658203 c 1.166546,-0.217567 2.424241,-0.354814 3.742188,-0.400391 z m 2,0.002 c 1.316421,0.05219 2.574392,0.196376 3.736328,0.419922 -0.159171,0.361415 -0.325144,0.709476 -0.503907,1.03125 -0.935467,1.683841 -2.06634,2.729741 -3.232421,3.115234 z M 17.277344,33.125 c 0.225496,0.544586 0.466542,1.071026 0.736328,1.556641 0.211268,0.380283 0.442993,0.735347 0.683594,1.078125 -1.105762,-0.544726 -2.113674,-1.250681 -2.994141,-2.09375 0.488151,-0.197461 1.014763,-0.378713 1.574219,-0.541016 z m 13.417968,0.03516 c 0.554036,0.164918 1.072612,0.349234 1.554688,0.548828 -0.875197,0.829211 -1.873929,1.523898 -2.96875,2.060547 0.243383,-0.345807 0.478014,-0.703784 0.691406,-1.08789 0.264025,-0.475246 0.501014,-0.989686 0.722656,-1.521485 z"/>
 <path style="fill:#4f4f4f" d="M 24 10 A 14 14 0 0 0 23.892578 10.003906 C 23.514942 10.006811 23.143315 10.031924 22.773438 10.064453 A 14 14 0 0 0 22.054688 10.150391 C 21.815513 10.184071 21.576919 10.219917 21.341797 10.265625 A 14 14 0 0 0 20.662109 10.417969 C 20.420818 10.477659 20.181495 10.541175 19.945312 10.613281 A 14 14 0 0 0 19.335938 10.816406 C 19.073114 10.910211 18.811983 11.008318 18.556641 11.117188 A 14 14 0 0 0 18.091797 11.326172 C 17.788918 11.468652 17.489848 11.618136 17.199219 11.78125 A 14 14 0 0 0 16.933594 11.933594 C 16.579751 12.142486 16.233567 12.36336 15.900391 12.601562 A 14 14 0 0 0 15.839844 12.644531 C 15.467834 12.913464 15.107267 13.198784 14.763672 13.501953 C 14.411394 13.812784 14.075663 14.140314 13.755859 14.484375 A 14 14 0 0 0 12.482422 16.046875 C 12.483626 16.047702 12.485123 16.048002 12.486328 16.048828 C 12.379388 16.203226 12.282492 16.364661 12.181641 16.523438 A 14 14 0 0 0 11.857422 17.052734 C 11.756087 17.228979 11.660213 17.408925 11.566406 17.589844 A 14 14 0 0 0 11.246094 18.255859 C 11.184473 18.391834 11.119863 18.525832 11.0625 18.664062 A 14 14 0 0 0 10.634766 19.837891 C 10.62107 19.881625 10.610932 19.926787 10.597656 19.970703 A 14 14 0 0 0 10.3125 21.085938 C 10.291476 21.184371 10.272838 21.283629 10.253906 21.382812 A 14 14 0 0 0 10.095703 22.431641 C 10.085941 22.518257 10.074568 22.60432 10.066406 22.691406 A 14 14 0 0 0 10 24 A 14 14 0 0 0 10.013672 24.402344 C 10.019668 24.610668 10.023949 24.819463 10.039062 25.025391 A 14 14 0 0 0 10.197266 26.328125 C 10.209519 26.400445 10.226866 26.47103 10.240234 26.542969 A 14 14 0 0 0 10.46875 27.560547 C 10.505273 27.698293 10.545334 27.834647 10.585938 27.970703 A 14 14 0 0 0 10.839844 28.740234 C 10.898189 28.900822 10.953579 29.062888 11.017578 29.220703 A 14 14 0 0 0 11.339844 29.939453 C 11.500234 30.278631 11.671371 30.611776 11.857422 30.935547 A 14 14 0 0 0 12.035156 31.242188 C 12.187411 31.492411 12.34665 31.7368 12.513672 31.976562 A 14 14 0 0 0 13.835938 33.617188 C 13.8389 33.615269 13.840781 33.613245 13.84375 33.611328 C 14.799979 34.621285 15.902881 35.49132 17.119141 36.183594 C 17.456948 36.375868 17.80958 36.544786 18.164062 36.708984 A 14 14 0 0 0 18.419922 36.832031 C 18.697264 36.953672 18.985148 37.054433 19.271484 37.158203 A 14 14 0 0 0 19.771484 37.341797 C 19.985678 37.410193 20.207259 37.459411 20.425781 37.517578 A 14 14 0 0 0 21.177734 37.710938 C 21.349448 37.746423 21.52722 37.763885 21.701172 37.792969 A 14 14 0 0 0 22.574219 37.925781 C 22.801818 37.94905 23.034914 37.950761 23.265625 37.962891 A 14 14 0 0 0 24 38 A 14 14 0 0 0 24.119141 37.996094 C 24.482686 37.992998 24.840871 37.969993 25.197266 37.939453 A 14 14 0 0 0 25.964844 37.847656 C 26.18409 37.81651 26.403288 37.783442 26.619141 37.742188 A 14 14 0 0 0 27.333984 37.582031 C 27.557797 37.526807 27.78056 37.470203 28 37.404297 A 14 14 0 0 0 28.652344 37.1875 C 28.886573 37.104249 29.121279 37.021007 29.349609 36.925781 A 14 14 0 0 0 29.904297 36.675781 C 30.1605 36.555509 30.414608 36.431953 30.662109 36.296875 A 14 14 0 0 0 31.044922 36.078125 C 31.343436 35.902774 31.637913 35.721678 31.921875 35.525391 A 14 14 0 0 0 32.119141 35.384766 C 32.445016 35.151124 32.762044 34.90646 33.066406 34.646484 A 14 14 0 0 0 33.142578 34.580078 C 33.469415 34.296848 33.784422 33.999222 34.083984 33.6875 A 14 14 0 0 0 35.390625 32.121094 C 35.389426 32.120266 35.387918 32.119968 35.386719 32.119141 C 35.564902 31.869946 35.732427 31.612357 35.894531 31.351562 A 14 14 0 0 0 36.021484 31.144531 C 36.172702 30.891684 36.315648 30.633789 36.451172 30.371094 A 14 14 0 0 0 36.613281 30.035156 C 36.722505 29.808891 36.834402 29.584312 36.931641 29.351562 A 14 14 0 0 0 36.935547 29.341797 A 14 14 0 0 0 37.332031 28.253906 C 37.374861 28.120952 37.410309 27.984253 37.449219 27.849609 A 14 14 0 0 0 37.675781 26.958984 C 37.70203 26.838675 37.724942 26.717144 37.748047 26.595703 A 14 14 0 0 0 37.900391 25.589844 C 37.910897 25.498373 37.924881 25.408408 37.933594 25.316406 A 14 14 0 0 0 38 24 A 14 14 0 0 0 37.978516 23.408203 C 37.972669 23.270179 37.972755 23.131094 37.962891 22.994141 A 14 14 0 0 0 37.802734 21.669922 C 37.791128 21.601468 37.774324 21.534909 37.761719 21.466797 A 14 14 0 0 0 37.53125 20.433594 C 37.497649 20.30709 37.460874 20.18172 37.423828 20.056641 A 14 14 0 0 0 37.150391 19.236328 C 37.096408 19.088587 37.047057 18.938359 36.988281 18.792969 A 14 14 0 0 0 36.626953 17.986328 C 36.485858 17.692355 36.334312 17.405368 36.173828 17.123047 A 14 14 0 0 0 35.96875 16.763672 C 35.820926 16.520487 35.665681 16.282151 35.503906 16.048828 A 14 14 0 0 0 34.195312 14.419922 C 34.19286 14.4216 34.19191 14.424104 34.189453 14.425781 C 33.231097 13.406401 32.124294 12.528752 30.902344 11.830078 C 30.552495 11.630045 30.188094 11.453053 29.820312 11.283203 A 14 14 0 0 0 29.597656 11.175781 C 29.325245 11.055815 29.042843 10.95623 28.761719 10.853516 A 14 14 0 0 0 28.222656 10.65625 C 28.017477 10.590822 27.804859 10.542373 27.595703 10.486328 A 14 14 0 0 0 26.822266 10.289062 C 26.661951 10.255917 26.496255 10.238505 26.333984 10.210938 A 14 14 0 0 0 25.410156 10.072266 C 25.227623 10.053811 25.040019 10.054274 24.855469 10.042969 A 14 14 0 0 0 24 10 z M 22.992188 12.1875 L 22.992188 16.894531 C 21.654019 16.848257 20.376841 16.707669 19.195312 16.484375 C 19.372766 16.068502 19.558809 15.667972 19.761719 15.302734 C 20.696813 13.619565 21.827124 12.573375 22.992188 12.1875 z M 24.992188 12.1875 C 26.158269 12.572993 27.289142 13.618893 28.224609 15.302734 C 28.423755 15.661196 28.606593 16.05365 28.78125 16.460938 C 27.604918 16.690107 26.328174 16.83961 24.992188 16.892578 L 24.992188 12.1875 z M 29.265625 13.222656 C 30.413047 13.783008 31.457973 14.514636 32.363281 15.394531 C 31.863904 15.606622 31.325369 15.802318 30.746094 15.976562 C 30.510932 15.399165 30.257185 14.844182 29.972656 14.332031 C 29.75475 13.939801 29.514782 13.574873 29.265625 13.222656 z M 18.712891 13.232422 C 18.466531 13.581628 18.229454 13.943624 18.013672 14.332031 C 17.723259 14.854774 17.463549 15.421091 17.224609 16.011719 C 16.639703 15.840168 16.09361 15.647418 15.587891 15.4375 C 16.498329 14.543009 17.554137 13.801147 18.712891 13.232422 z M 33.726562 16.978516 C 34.97054 18.700452 35.767588 20.762089 35.951172 23.005859 L 32.185547 23.005859 C 32.112031 21.177049 31.837687 19.447327 31.394531 17.875 C 32.193195 17.630189 32.943213 17.349288 33.628906 17.029297 C 33.662716 17.013519 33.692996 16.994498 33.726562 16.978516 z M 14.232422 17.035156 C 14.950176 17.36925 15.741397 17.658502 16.582031 17.910156 C 16.144649 19.47319 15.873753 21.190584 15.800781 23.005859 L 12.048828 23.005859 C 12.230395 20.786735 13.011825 18.745652 14.232422 17.035156 z M 29.453125 18.369141 C 29.85107 19.76973 30.108841 21.337604 30.183594 23.005859 L 24.992188 23.005859 L 24.992188 18.892578 C 26.565449 18.836085 28.064237 18.6576 29.453125 18.369141 z M 18.525391 18.398438 C 19.917076 18.679234 21.419569 18.847212 22.992188 18.896484 L 22.992188 23.005859 L 17.802734 23.005859 C 17.876974 21.349054 18.132074 19.791734 18.525391 18.398438 z M 12.048828 25.005859 L 15.800781 25.005859 C 15.875751 26.871014 16.158432 28.634982 16.617188 30.232422 C 15.795855 30.476686 15.023368 30.757179 14.318359 31.080078 C 13.05167 29.349239 12.236361 27.271168 12.048828 25.005859 z M 17.802734 25.005859 L 22.992188 25.005859 L 22.992188 29.255859 C 21.433059 29.30471 19.94216 29.469539 18.560547 29.746094 C 18.146084 28.319592 17.879299 26.714724 17.802734 25.005859 z M 24.992188 25.005859 L 30.183594 25.005859 C 30.106516 26.726176 29.837159 28.341772 29.417969 29.775391 C 28.039082 29.491236 26.551973 29.315776 24.992188 29.259766 L 24.992188 25.005859 z M 32.185547 25.005859 L 35.951172 25.005859 C 35.761804 27.293329 34.932549 29.390092 33.644531 31.130859 C 33.639172 31.12835 33.634272 31.125551 33.628906 31.123047 C 32.933382 30.798468 32.17099 30.514749 31.359375 30.267578 C 31.824018 28.661012 32.110033 26.884529 32.185547 25.005859 z M 22.992188 31.257812 L 22.992188 35.826172 C 21.827124 35.440297 20.696813 34.394106 19.761719 32.710938 C 19.57957 32.383069 19.411783 32.02719 19.25 31.658203 C 20.416546 31.440636 21.674241 31.303389 22.992188 31.257812 z M 24.992188 31.259766 C 26.308609 31.311959 27.56658 31.456142 28.728516 31.679688 C 28.569345 32.041103 28.403372 32.389164 28.224609 32.710938 C 27.289142 34.394779 26.158269 35.440679 24.992188 35.826172 L 24.992188 31.259766 z M 17.277344 32.125 C 17.50284 32.669586 17.743886 33.196026 18.013672 33.681641 C 18.22494 34.061924 18.456665 34.416988 18.697266 34.759766 C 17.591504 34.21504 16.583592 33.509085 15.703125 32.666016 C 16.191276 32.468555 16.717888 32.287303 17.277344 32.125 z M 30.695312 32.160156 C 31.249348 32.325074 31.767924 32.50939 32.25 32.708984 C 31.374803 33.538195 30.376071 34.232882 29.28125 34.769531 C 29.524633 34.423724 29.759264 34.065747 29.972656 33.681641 C 30.236681 33.206395 30.47367 32.691955 30.695312 32.160156 z"/>
 <path style="opacity:0.2;fill:#ffffff" d="M 24,4 C 12.92,4 4,12.92 4,24 4,24.16787 4.008,24.33314 4.0117,24.5 4.27639,13.65386 13.08787,5 24,5 c 10.91213,0 19.72361,8.65386 19.98828,19.5 0.004,-0.16686 0.0117,-0.33213 0.0117,-0.5 0,-11.08 -8.92,-20 -20,-20 z"/>
</svg>

<svg clip-rule="evenodd" fill-rule="evenodd" stroke-linejoin="round" stroke-miterlimit="2" viewBox="0 0 48 48" xmlns="http://www.w3.org/2000/svg">
 <linearGradient id="a" x2="1" gradientTransform="matrix(0 -35.3911 35.3911 0 968.766 41.2823)" gradientUnits="userSpaceOnUse">
  <stop stop-color="#13bee3" offset="0"/>
  <stop stop-color="#5ecaff" offset="1"/>
 </linearGradient>
 <circle cx="24" cy="24" r="22.764" fill="url(#a)"/>
 <path transform="matrix(1.14953 0 0 1.14953 -3.58872 -3.58872)" d="m24 10c-.036.001-.072.002-.107.004-.378.003-.75.028-1.12.06-.24.023-.48.052-.718.086-.239.034-.478.07-.713.116-.228.045-.455.096-.68.152-.241.06-.481.123-.717.195-.204.063-.408.131-.609.203-.263.094-.524.192-.779.301-.157.067-.312.137-.465.209-.303.143-.602.292-.893.455-.089.05-.177.101-.265.153-.354.208-.7.429-1.034.668-.02.014-.04.028-.06.043-.372.268-.733.554-1.076.857-.353.311-.688.638-1.008.982-.462.49-.887 1.012-1.274 1.563.002.001.003.001.004.002-.107.154-.204.316-.304.474-.112.174-.22.351-.325.53-.101.176-.197.356-.291.537-.112.219-.219.441-.32.666-.062.136-.126.27-.183.408-.16.385-.303.776-.428 1.174-.014.044-.024.089-.037.133-.111.367-.206.739-.285 1.115-.022.098-.04.198-.059.297-.066.347-.119.697-.158 1.049-.01.086-.021.172-.03.259-.042.435-.064.872-.066 1.309.003.134.007.268.014.402.006.209.01.417.025.623.032.437.085.872.158 1.303.013.072.03.143.043.215.064.342.14.681.229 1.018.036.137.076.274.117.41.077.259.162.515.254.769.058.161.114.323.178.481.1.242.208.482.322.718.16.34.331.673.517.997.058.103.118.205.178.306.152.25.312.495.479.735.399.579.841 1.127 1.322 1.64.003-.002.005-.004.008-.006.956 1.01 2.059 1.88 3.275 2.573.338.192.691.361 1.045.525.085.042.17.083.256.123.277.122.565.222.851.326.166.065.333.126.5.184.215.068.436.117.655.176.249.071.499.135.752.193.171.035.349.053.523.082.29.053.581.098.873.133.228.023.461.025.692.037.244.019.489.031.734.037.04-.001.079-.002.119-.004.364-.003.722-.026 1.078-.057.257-.023.513-.054.768-.091.219-.031.438-.065.654-.106.24-.047.478-.1.715-.16.224-.055.447-.112.666-.178.219-.067.437-.139.652-.216.235-.084.469-.167.698-.262.186-.08.371-.163.554-.25.257-.12.511-.244.758-.379.129-.071.256-.144.383-.219.298-.175.593-.356.877-.553.066-.046.132-.093.197-.14.326-.234.643-.479.947-.739.026-.022.051-.044.077-.066.326-.283.641-.581.941-.893.473-.489.91-1.013 1.307-1.566-.002-.001-.003-.001-.004-.002.178-.249.345-.507.508-.767.042-.069.085-.138.126-.207.152-.253.295-.511.43-.774.056-.111.11-.223.162-.336.11-.226.221-.451.319-.683.001-.004.002-.007.004-.01.147-.357.279-.72.396-1.088.043-.133.078-.27.117-.404.085-.295.161-.592.227-.891.026-.12.049-.242.072-.363.063-.334.114-.669.152-1.006.011-.092.025-.182.034-.274.042-.437.065-.876.066-1.316-.003-.197-.01-.395-.021-.592-.006-.138-.006-.277-.016-.414-.032-.444-.086-.885-.16-1.324-.012-.069-.029-.135-.041-.203-.064-.347-.141-.692-.231-1.033-.033-.127-.07-.252-.107-.377-.083-.277-.174-.55-.274-.821-.054-.147-.103-.298-.162-.443-.112-.273-.232-.542-.361-.807-.141-.294-.293-.581-.453-.863-.067-.121-.135-.241-.205-.359-.148-.244-.303-.482-.465-.715-.395-.575-.833-1.119-1.309-1.629-.002.002-.003.004-.006.006-.958-1.02-2.065-1.897-3.287-2.596-.35-.2-.714-.377-1.082-.547-.074-.036-.148-.072-.222-.107-.273-.12-.555-.22-.836-.322-.179-.07-.358-.136-.539-.198-.206-.065-.418-.114-.627-.17-.256-.073-.514-.139-.774-.197-.16-.033-.326-.05-.488-.078-.306-.057-.614-.103-.924-.139-.182-.018-.37-.018-.555-.029-.284-.023-.569-.037-.855-.043zm-1.008 2.188v4.707c-1.338-.047-2.615-.187-3.797-.411.178-.415.364-.816.567-1.181.935-1.683 2.065-2.73 3.23-3.115zm2 0c1.166.385 2.297 1.431 3.233 3.115.199.358.382.751.556 1.158-1.176.229-2.453.379-3.789.432zm4.274 1.035c1.147.56 2.192 1.292 3.097 2.172-.499.212-1.038.407-1.617.582-.235-.578-.489-1.133-.773-1.645-.218-.392-.458-.757-.707-1.109zm-10.553.009c-.246.35-.484.712-.699 1.1-.291.523-.55 1.089-.789 1.68-.585-.172-1.131-.365-1.637-.574.91-.895 1.966-1.637 3.125-2.206zm15.014 3.747c1.244 1.721 2.041 3.783 2.224 6.027h-3.765c-.074-1.829-.348-3.559-.791-5.131.798-.245 1.548-.526 2.234-.846.034-.015.064-.035.098-.05zm-19.495.056c.718.334 1.509.624 2.35.875-.437 1.563-.708 3.281-.781 5.096h-3.752c.181-2.219.963-4.26 2.183-5.971zm15.221 1.334c.398 1.401.656 2.969.731 4.637h-5.192v-4.113c1.573-.057 3.072-.235 4.461-.524zm-10.928.029c1.392.281 2.895.449 4.467.498v4.11h-5.189c.074-1.657.329-3.214.722-4.608zm-6.476 6.608h3.752c.075 1.865.357 3.629.816 5.226-.821.245-1.594.525-2.299.848-1.266-1.731-2.082-3.809-2.269-6.074zm5.754 0h5.189v4.25c-1.559.049-3.05.214-4.431.49-.415-1.426-.682-3.031-.758-4.74zm7.189 0h5.192c-.077 1.72-.347 3.336-.766 4.769-1.379-.284-2.866-.459-4.426-.515zm7.194 0h3.765c-.189 2.287-1.018 4.384-2.306 6.125-.006-.003-.011-.005-.016-.008-.696-.325-1.458-.608-2.27-.855.465-1.607.751-3.383.827-5.262zm-9.194 6.252v4.568c-1.165-.386-2.295-1.432-3.23-3.115-.182-.328-.35-.684-.512-1.053 1.167-.217 2.424-.355 3.742-.4zm2 .002c1.317.052 2.575.196 3.737.42-.16.361-.326.709-.504 1.031-.936 1.684-2.067 2.73-3.233 3.115zm-7.715.865c.226.545.467 1.071.737 1.557.211.38.443.735.683 1.078-1.105-.545-2.113-1.251-2.994-2.094.488-.197 1.015-.379 1.574-.541zm13.418.035c.554.165 1.073.349 1.555.549-.875.829-1.874 1.524-2.969 2.061.244-.346.478-.704.692-1.088.264-.476.501-.99.722-1.522z" fill="#303f52" fill-rule="nonzero"/>
</svg>
